packages/synapse-interface/assets/icons/ftm.svg

<svg fill="none" height="48" viewBox="0 0 48 48" width="48" xmlns="http://www.w3.org/2000/svg"><rect fill="#1969ff" height="48" rx="24" width="48"/><path d="m22.4425 6.34485c.8749-.4598 2.2063-.4598 3.0813 0l8.9282 4.69185c.527.2769.8164.6896.8682 1.1155h.0085v23.5837c-.0116.4647-.3037.9262-.8767 1.2274l-8.9282 4.6918c-.875.4599-2.2064.4599-3.0813 0l-8.9283-4.6918c-.5706-.2998-.8444-.7647-.8579-1.2274-.0014-.0455-.0016-.0835-.0003-.115v-23.3172c-.0009-.0255-.001-.051-.0003-.0764l.0006-.0751h.004c.0396-.4306.3159-.8327.8539-1.1155zm11.4807 18.96465-8.3994 4.4139c-.875.4599-2.2064.4599-3.0813 0l-8.3811-4.4041v10.37l8.3811 4.381c.4732.2517.9644.4969 1.4447.5282l.0959.0031c.5005.0016.9864-.2512 1.4791-.4905l8.461-4.4595zm-22.7191 9.9137c0 .9034.1055 1.4974.3151 1.9159.1737.3468.4343.6117.9102.9343l.0272.0183c.1044.07.2195.1434.3595.2295l.1651.1007.5072.3046-.7274 1.1964-.5676-.3412-.0954-.0582c-.1641-.1009-.3001-.1873-.427-.2725-1.3563-.9098-1.8621-1.9015-1.87208-3.9651l-.00015-.0627zm12.0762-16.2349c-.065.0222-.126.0479-.1815.0771l-8.9282 4.6919c-.0094.0049-.0183.0098-.0268.0146l-.0076.0044.014.0079.0204.011 8.9282 4.6919c.0555.0292.1165.0548.1815.0771zm1.4057 0v9.5759c.065-.0223.1259-.0479.1814-.0771l8.9283-4.6919c.0094-.0049.0183-.0098.0268-.0146l.0076-.0043-.0141-.008-.0203-.011-8.9283-4.6919c-.0555-.0292-.1164-.0549-.1814-.0771zm9.2372-5.1631-8.0091 4.2089 8.0091 4.2089zm-19.8618.0098v8.3982l7.9906-4.1991zm10.806-6.25377c-.4642-.24399-1.3043-.24399-1.7686 0l-8.9282 4.69187c-.0094.0049-.0183.0098-.0268.0146l-.0076.0044.014.0079.0204.011 8.9282 4.6919c.4643.244 1.3044.244 1.7686 0l8.9283-4.6919c.0094-.0049.0183-.0097.0268-.0146l.0076-.0043-.0141-.008-.0203-.011zm10.3753.51451.5676.34107.0954.05828c.1641.10079.3001.18738.427.27249 1.3563.90976 1.8621 1.90162 1.872 3.96502l.0003.0628h-1.4054c0-.9036-.1055-1.4974-.3151-1.9159-.1737-.3467-.4343-.6118-.9102-.93425l-.0271-.0183c-.1045-.07006-.2195-.14344-.3596-.2297l-.1651-.10063-.5071-.30448z" fill="#fff"/></svg>

<svg width="48" height="48" viewBox="0 0 48 48" fill="none" xmlns="http://www.w3.org/2000/svg">
<rect width="48" height="48" rx="24" fill="#1969FF"/>
<path d="M22.4425 6.34485C23.3174 5.88505 24.6488 5.88505 25.5238 6.34485L34.452 11.0367C34.979 11.3136 35.2684 11.7263 35.3202 12.1522H35.3287V35.7359C35.3171 36.2006 35.025 36.6621 34.452 36.9633L25.5238 41.6551C24.6488 42.115 23.3174 42.115 22.4425 41.6551L13.5142 36.9633C12.9436 36.6635 12.6698 36.1986 12.6563 35.7359C12.6549 35.6904 12.6547 35.6524 12.656 35.6209L12.656 12.3037C12.6551 12.2782 12.655 12.2527 12.6557 12.2273L12.6563 12.1522L12.6603 12.1522C12.6999 11.7216 12.9762 11.3195 13.5142 11.0367L22.4425 6.34485ZM33.9232 25.3095L25.5238 29.7234C24.6488 30.1833 23.3174 30.1833 22.4425 29.7234L14.0614 25.3193V35.6893L22.4425 40.0703C22.9157 40.322 23.4069 40.5672 23.8872 40.5985L23.9831 40.6016C24.4836 40.6032 24.9695 40.3504 25.4622 40.1111L33.9232 35.6516V25.3095ZM11.2041 35.2232C11.2041 36.1266 11.3096 36.7206 11.5192 37.1391C11.6929 37.4859 11.9535 37.7508 12.4294 38.0734L12.4566 38.0917C12.561 38.1617 12.6761 38.2351 12.8161 38.3212L12.9812 38.4219L13.4884 38.7265L12.761 39.9229L12.1934 39.5817L12.098 39.5235C11.9339 39.4226 11.7979 39.3362 11.671 39.251C10.3147 38.3412 9.8089 37.3495 9.79892 35.2859L9.79877 35.2232H11.2041ZM23.2803 18.9883C23.2153 19.0105 23.1543 19.0362 23.0988 19.0654L14.1706 23.7573C14.1612 23.7622 14.1523 23.7671 14.1438 23.7719L14.1362 23.7763L14.1502 23.7842L14.1706 23.7952L23.0988 28.4871C23.1543 28.5163 23.2153 28.5419 23.2803 28.5642V18.9883ZM24.686 18.9883V28.5642C24.751 28.5419 24.8119 28.5163 24.8674 28.4871L33.7957 23.7952C33.8051 23.7903 33.814 23.7854 33.8225 23.7806L33.8301 23.7763L33.816 23.7683L33.7957 23.7573L24.8674 19.0654C24.8119 19.0362 24.751 19.0105 24.686 18.9883ZM33.9232 13.8252L25.9141 18.0341L33.9232 22.243V13.8252ZM14.0614 13.835V22.2332L22.052 18.0341L14.0614 13.835ZM24.8674 7.58123C24.4032 7.33724 23.5631 7.33724 23.0988 7.58123L14.1706 12.2731C14.1612 12.278 14.1523 12.2829 14.1438 12.2877L14.1362 12.2921L14.1502 12.3L14.1706 12.311L23.0988 17.0029C23.5631 17.2469 24.4032 17.2469 24.8674 17.0029L33.7957 12.311C33.8051 12.3061 33.814 12.3013 33.8225 12.2964L33.8301 12.2921L33.816 12.2841L33.7957 12.2731L24.8674 7.58123ZM35.2427 8.09574L35.8103 8.43681L35.9057 8.49509C36.0698 8.59588 36.2058 8.68247 36.3327 8.76758C37.689 9.67734 38.1948 10.6692 38.2047 12.7326L38.205 12.7954H36.7996C36.7996 11.8918 36.6941 11.298 36.4845 10.8795C36.3108 10.5328 36.0502 10.2677 35.5743 9.94525L35.5472 9.92695C35.4427 9.85689 35.3277 9.78351 35.1876 9.69725L35.0225 9.59662L34.5154 9.29214L35.2427 8.09574Z" fill="white"/>
</svg>
